styles/icons/metadata-a01disabled.svg

<svg xmlns="http://www.w3.org/2000/svg" width="24" height="24" viewBox="0 0 24 24">
  <path fill="#333" fill-rule="evenodd" d="M3.2882,13.9048 C3.2882,13.3348 2.97353333,12.7328 2.0002,12.6998 L2.0002,11.3008 C2.97353333,11.2678 3.2882,10.6648 3.2882,10.0958 C3.2882,9.0858 3.13886667,8.4508 3.13886667,7.3118 C3.13886667,5.5708 3.73797778,4.9998 5.0562,4.9998 L6.0002,4.9998 L6.0002,6.2708 L5.71486667,6.2708 C5.10153333,6.2708 4.92108889,6.5148 4.92108889,7.4098 C4.92108889,8.2728 4.98153333,9.1028 4.98153333,10.0638 C4.98153333,11.3008 4.62153333,11.7728 3.87308889,11.9678 L3.87308889,12.0328 C4.62153333,12.2288 4.98153333,12.6998 4.98153333,13.9378 C4.98153333,14.9308 4.92108889,15.7118 4.92108889,16.5918 C4.92108889,17.4868 5.10153333,17.7308 5.71486667,17.7308 L6.0002,17.7308 L6.0002,18.9998 L5.0562,18.9998 C3.73797778,18.9998 3.13886667,18.4468 3.13886667,16.6888 C3.13886667,15.5328 3.2882,14.9308 3.2882,13.9048 Z M17.25,15 C17.25,15.6908333 16.6908333,16.25 16,16.25 C15.3091667,16.25 14.75,15.6908333 14.75,15 C14.75,14.3091667 15.3091667,13.75 16,13.75 C16.6908333,13.75 17.25,14.3091667 17.25,15 Z M13.25,15 C13.25,15.6908333 12.6908333,16.25 12,16.25 C11.3091667,16.25 10.75,15.6908333 10.75,15 C10.75,14.3091667 11.3091667,13.75 12,13.75 C12.6908333,13.75 13.25,14.3091667 13.25,15 Z M9.25,15 C9.25,15.6908333 8.69083333,16.25 8,16.25 C7.30916667,16.25 6.75,15.6908333 6.75,15 C6.75,14.3091667 7.30916667,13.75 8,13.75 C8.69083333,13.75 9.25,14.3091667 9.25,15 Z M18.2844444,17.73 C18.9137778,17.73 19.0782222,17.486 19.0782222,16.591 C19.0782222,15.711 19.0186667,14.931 19.0186667,13.937 C19.0186667,12.7 19.3777778,12.228 20.1271111,12.032 L20.1271111,11.968 C19.3777778,11.772 19.0186667,11.3 19.0186667,10.063 C19.0186667,9.103 19.0782222,8.272 19.0782222,7.409 C19.0782222,6.514 18.9137778,6.27 18.2844444,6.27 L18,6.27 L18,5 L18.9431111,5 C20.2622222,5 20.8604444,5.57 20.8604444,7.312 C20.8604444,8.451 20.7111111,9.085 20.7111111,10.096 C20.7111111,10.665 21.0257778,11.268 22,11.3 L22,12.7 C21.0257778,12.732 20.7111111,13.334 20.7111111,13.904 C20.7111111,14.931 20.8604444,15.532 20.8604444,16.688 C20.8604444,18.446 20.2622222,19 18.9431111,19 L18,19 L18,17.73 L18.2844444,17.73 Z" opacity=".3"/>
</svg>

<svg opacity="0.3" fill="#333333" height="24" width="24" viewBox="0 0 24 24" xmlns="http://www.w3.org/2000/svg">
    <path d="M3.3,13.9c0-0.6-0.3-1.2-1.3-1.2v-1.4c1,0,1.3-0.6,1.3-1.2c0-1-0.1-1.6-0.1-2.8C3.1,5.6,3.7,5,5.1,5H6v1.3H5.7c-0.6,0-0.8,0.2-0.8,1.1C4.9,8.3,5,9.1,5,10.1c0,1.2-0.4,1.7-1.1,1.9V12C4.6,12.2,5,12.7,5,13.9c0,1-0.1,1.8-0.1,2.7c0,0.9,0.2,1.1,0.8,1.1H6V19H5.1c-1.3,0-1.9-0.6-1.9-2.3C3.1,15.5,3.3,14.9,3.3,13.9z M17.2,15c0,0.7-0.6,1.2-1.2,1.2c-0.7,0-1.2-0.6-1.2-1.2s0.6-1.2,1.2-1.2C16.7,13.8,17.2,14.3,17.2,15z M13.2,15c0,0.7-0.6,1.2-1.2,1.2s-1.2-0.6-1.2-1.2s0.6-1.2,1.2-1.2S13.2,14.3,13.2,15z M9.2,15c0,0.7-0.6,1.2-1.2,1.2S6.8,15.7,6.8,15s0.6-1.2,1.2-1.2S9.2,14.3,9.2,15z M18.3,17.7c0.6,0,0.8-0.2,0.8-1.1c0-0.9-0.1-1.7-0.1-2.7c0-1.2,0.4-1.7,1.1-1.9V12c-0.7-0.2-1.1-0.7-1.1-1.9c0-1,0.1-1.8,0.1-2.7c0-0.9-0.2-1.1-0.8-1.1H18V5h0.9c1.3,0,1.9,0.6,1.9,2.3c0,1.1-0.1,1.8-0.1,2.8c0,0.6,0.3,1.2,1.3,1.2v1.4c-1,0-1.3,0.6-1.3,1.2c0,1,0.1,1.6,0.1,2.8c0,1.8-0.6,2.3-1.9,2.3H18v-1.3H18.3z"/>
</svg>
